dist/svg/monitoring.svg

<!-- Generated by Trend Micro Style Portal -->
<svg version="1.1" xmlns="http://www.w3.org/2000/svg" width="16" height="16" viewBox="0 0 16 16">
  <title>monitoring</title>
  <path fill="rgb(34,34,34)" d="M15 1h-14c-0.552 0-1 0.448-1 1v0 12c0 0.552 0.448 1 1 1v0h14c0.552 0 1-0.448 1-1v0-12c0-0.552-0.448-1-1-1v0zM14 13h-12v-10h12v10zM5 9h-2v-1h1.48l2-3 3 4.22 1.52-2.22h2v1h-1.46l-2 3-3-4.21z"></path>
</svg>

<svg width="16" height="16" viewBox="0 0 16 16" fill="rgb(34, 34, 34)" xmlns="http://www.w3.org/2000/svg"><title>monitoring</title><path d="M15 1H1C0.448 1 0 1.448 0 2V14C0 14.552 0.448 15 1 15H15C15.552 15 16 14.552 16 14V2C16 1.448 15.552 1 15 1ZM14 13H2V3H14V13ZM5 9H3V8H4.48L6.48 5L9.48 9.22L11 7H13V8H11.54L9.54 11L6.54 6.79L5 9Z" fill="rgb(34, 34, 34)" fill-opacity="1.00"/></svg>
